public/assets/images/icons/feature-icon2.svg

<svg width="32" height="34" viewBox="0 0 32 34" fill="none" xmlns="http://www.w3.org/2000/svg">
<path d="M14.4478 14.69C14.1914 15.4068 14.2768 16.2321 14.2571 16.9851C14.2374 17.7381 14.2012 18.5108 14.1486 19.2703C14.0894 20.1187 15.2961 20.3653 15.6973 19.688C17.0915 17.3336 18.6106 15.0484 20.2842 12.8816C21.9579 10.7147 23.7203 8.69245 25.5354 6.68672C26.5909 5.51944 27.6726 4.38175 28.6657 3.16185C28.9616 2.80016 29.0208 2.2905 28.6657 1.93867C28.3105 1.58684 27.7811 1.61315 27.4425 1.93867C25.44 3.86552 23.6118 6.00279 21.8132 8.12034C20.0146 10.2379 18.239 12.4837 16.6607 14.8183C15.7828 16.1138 14.974 17.4553 14.2637 18.8495L15.8124 19.267C15.8157 18.4845 15.8025 17.6987 15.7729 16.9161C15.7434 16.1335 15.7532 15.2917 15.4113 14.5618C15.2041 14.1179 14.5892 14.302 14.4511 14.6868L14.4478 14.69Z" fill="black"/>
<path fill-rule="evenodd" clip-rule="evenodd" d="M22.9728 10.7305C24.467 12.3921 25.3761 14.5904 25.3761 17.0016C25.3761 22.1837 21.1771 26.3826 15.9951 26.3826C10.813 26.3826 6.61406 22.1837 6.61406 17.0016C6.61406 11.8196 10.813 7.62064 15.9951 7.62064C17.5723 7.62064 19.0584 8.00961 20.3628 8.69686C20.657 8.34149 20.9524 7.98961 21.2481 7.64141C21.5447 7.29228 21.8427 6.94178 22.1428 6.59107L21.9762 6.67037C20.845 7.20633 19.4969 6.65064 19.0793 5.4702L17.9909 2.40567C17.3235 0.531442 14.6765 0.531442 14.0091 2.40567L12.9207 5.4702C12.4998 6.65064 11.155 7.20962 10.0238 6.67037L7.08755 5.27291C5.29223 4.41801 3.41801 6.29223 4.27291 8.08755L5.67037 11.0238C6.20633 12.155 5.65064 13.5031 4.4702 13.9207L1.40567 15.0091C-0.468558 15.6765 -0.468558 18.3235 1.40567 18.9909L4.4702 20.0793C5.65064 20.5002 6.20962 21.845 5.67037 22.9762L4.27291 25.9125C3.41801 27.7078 5.29223 29.582 7.08755 28.7271L10.0238 27.3296C11.155 26.7936 12.5031 27.3493 12.9207 28.5298L14.0091 31.5943C14.6765 33.4685 17.3235 33.4685 17.9909 31.5943L19.0793 28.5298C19.5002 27.3493 20.845 26.7904 21.9762 27.3296L24.9125 28.7271C26.7077 29.582 28.582 27.7078 27.7271 25.9125L26.3296 22.9762C25.7936 21.845 26.3493 20.4969 27.5298 20.0793L30.5943 18.9909C32.4685 18.3235 32.4685 15.6765 30.5943 15.0091L27.5298 13.9207C26.3493 13.4998 25.7904 12.155 26.3296 11.0238L27.7271 8.08755C28.1373 7.22619 27.9192 6.34668 27.383 5.75911C27.2052 5.95451 27.0274 6.14878 26.8503 6.34221C26.5922 6.62409 26.3357 6.90423 26.0834 7.18334C25.0235 8.35463 23.9845 9.52831 22.9728 10.7305ZM22.4541 10.1975C23.4587 9.00546 24.4878 7.84347 25.5344 6.68694C25.7936 6.40027 26.0543 6.11539 26.315 5.83064C26.4758 5.65499 26.6366 5.47935 26.797 5.3034C26.253 5.01401 25.5774 4.9563 24.9125 5.27291L23.8051 5.79993C23.1321 6.5686 22.4702 7.3459 21.8122 8.12055C21.5449 8.43532 21.278 8.75282 21.0124 9.07305C21.5294 9.40094 22.0122 9.77791 22.4541 10.1975Z" fill="black"/>
</svg>

<svg xmlns="http://www.w3.org/2000/svg" width="32" height="34" fill="none"><path fill="#000" d="M14.448 14.69c-.257.717-.171 1.542-.19 2.295-.02.753-.057 1.526-.11 2.285-.059.849 1.148 1.095 1.55.418a67 67 0 0 1 4.586-6.806c1.674-2.167 3.436-4.19 5.251-6.195 1.056-1.168 2.138-2.305 3.13-3.525.297-.362.356-.871 0-1.223a.863.863 0 0 0-1.223 0c-2.002 1.927-3.83 4.064-5.629 6.181s-3.574 4.364-5.152 6.698a38 38 0 0 0-2.397 4.031l1.548.418c.004-.782-.01-1.568-.04-2.35-.029-.784-.019-1.625-.36-2.355-.208-.444-.823-.26-.96.125z"/><path fill="#000" fill-rule="evenodd" d="M22.973 10.73a9.35 9.35 0 0 1 2.403 6.272 9.38 9.38 0 0 1-9.38 9.38 9.38 9.38 0 0 1-9.382-9.38 9.38 9.38 0 0 1 9.381-9.381c1.577 0 3.063.389 4.368 1.076q.442-.533.885-1.056.445-.524.895-1.05l-.167.08a2.11 2.11 0 0 1-2.897-1.2l-1.088-3.065c-.668-1.875-3.314-1.875-3.982 0L12.921 5.47a2.11 2.11 0 0 1-2.897 1.2L7.088 5.273c-1.796-.855-3.67 1.02-2.815 2.815l1.397 2.936a2.11 2.11 0 0 1-1.2 2.897l-3.064 1.088c-1.875.668-1.875 3.314 0 3.982l3.064 1.088a2.11 2.11 0 0 1 1.2 2.897l-1.397 2.937c-.855 1.795 1.02 3.669 2.815 2.814l2.936-1.397a2.11 2.11 0 0 1 2.897 1.2l1.088 3.064c.668 1.874 3.314 1.874 3.982 0l1.088-3.064a2.11 2.11 0 0 1 2.897-1.2l2.937 1.397c1.795.855 3.669-1.02 2.814-2.814l-1.397-2.937a2.11 2.11 0 0 1 1.2-2.897l3.064-1.088c1.874-.668 1.874-3.314 0-3.982l-3.064-1.088a2.11 2.11 0 0 1-1.2-2.897l1.397-2.936c.41-.862.192-1.741-.344-2.329l-.533.583q-.387.423-.767.841a131 131 0 0 0-3.11 3.547m-.519-.533a132 132 0 0 1 3.08-3.51q.39-.43.781-.856l.482-.528a2.06 2.06 0 0 0-1.884-.03l-1.108.527a204 204 0 0 0-2.793 3.273q.777.494 1.442 1.124" clip-rule="evenodd"/></svg>
